svg/girl_0510y_negative.svg

<svg width="48" height="48" viewBox="0 0 48 48" fill="none" xmlns="http://www.w3.org/2000/svg">
<path fill-rule="evenodd" clip-rule="evenodd" d="M0 0V47.9994H47.9994V0H0ZM12.6368 3.99995C13.2408 4.01245 13.9018 4.10635 14.6148 4.27335C17.1678 4.93904 18.7268 8.0034 19.8338 11.0509C19.9807 10.9679 20.1257 10.8849 20.2767 10.8089C20.2747 10.8079 20.2727 10.8069 20.2707 10.8069C21.8507 9.91388 23.3697 9.75768 25.2827 9.60538C25.2877 9.60538 25.2977 9.60148 25.3027 9.60148C25.3407 9.60148 25.3777 9.60878 25.4157 9.60928C25.6937 9.61338 25.9707 9.62608 26.2477 9.65218C32.0416 10.1429 36.4955 14.9878 36.4995 20.803C36.4995 26.987 31.4866 31.9999 25.3027 31.9999C19.1188 31.9999 14.1048 26.987 14.1048 20.803C14.1098 17.0891 15.9528 13.6571 18.9608 11.5902C18.0428 8.74559 13.8858 4.54044 11.8669 8.3147C9.20948 12.1701 11.8319 23.8745 7.9237 23.6025C4.36825 23.5985 2.97736 19.6956 4.76944 17.1486C2.78236 20.3725 9.52938 25.9435 8.55259 18.6706C6.88771 7.8237 8.4067 3.91475 12.6368 4.00275V4.00075V3.99995ZM26.7067 14.4998C26.3087 14.4648 25.8827 15.2098 25.3907 17.3028C22.1967 17.7048 20.8007 19.3698 15.8958 17.0178C15.4098 18.2198 15.1588 19.5048 15.1558 20.8027C15.1558 26.4067 19.6978 30.9506 25.3027 30.9506C30.9076 30.9516 35.4516 26.4077 35.4506 20.8027C35.4466 20.1067 35.3716 19.4128 35.2266 18.7318C32.9906 18.8398 30.2976 19.1878 28.1886 17.3028C27.6837 15.8808 27.2187 14.5448 26.7067 14.4998ZM21.5407 19.5348C22.1207 19.5348 22.5907 20.0037 22.5917 20.5837C22.5917 21.1647 22.1217 21.6347 21.5407 21.6347C20.9607 21.6337 20.4917 21.1637 20.4917 20.5837C20.4927 20.0047 20.9617 19.5358 21.5407 19.5348ZM29.1946 19.5348C29.7746 19.5348 30.2456 20.0037 30.2456 20.5837C30.2466 21.1647 29.7756 21.6347 29.1946 21.6347C28.6156 21.6337 28.1456 21.1637 28.1456 20.5837C28.1466 20.0047 28.6156 19.5358 29.1946 19.5348ZM21.9687 25.1817C22.1417 25.1657 22.3317 25.3037 22.3787 25.6427C22.5187 26.7437 23.8117 27.5887 25.3607 27.5897C26.9617 27.5567 28.2436 26.7997 29.0616 25.6427C28.9206 27.0277 27.3057 28.0986 25.3607 28.0996C23.4177 28.0976 21.8037 27.0267 21.6617 25.6427C21.6387 25.3667 21.7957 25.1967 21.9687 25.1817ZM3.99995 33.9996H43.9995V43.9995H3.99995V33.9996ZM7.703 35.3296C6.92791 35.3296 6.33342 35.5866 5.91983 36.1016C5.50953 36.6155 5.30463 37.3695 5.30463 38.3625V39.6735C5.31443 40.6275 5.52523 41.3595 5.93543 41.8705C6.34582 42.3815 6.93771 42.6385 7.7128 42.6385C8.49769 42.6385 9.09479 42.3785 9.50188 41.8565C9.90878 41.3355 10.1109 40.5825 10.1109 39.5995V38.2905C10.1019 37.3365 9.89268 36.6055 9.48228 36.0975C9.07199 35.5856 8.47809 35.3296 7.703 35.3296ZM28.8277 35.3296C28.0527 35.3296 27.4588 35.5866 27.0448 36.1016C26.6348 36.6155 26.4278 37.3695 26.4278 38.3625V39.6735C26.4378 40.6275 26.6478 41.3595 27.0588 41.8705C27.4688 42.3815 28.0627 42.6385 28.8377 42.6385C29.6227 42.6385 30.2177 42.3785 30.6247 41.8565C31.0317 41.3355 31.2357 40.5825 31.2357 39.5995V38.2905C31.2267 37.3365 31.0157 36.6055 30.6047 36.0975C30.1947 35.5856 29.6027 35.3296 28.8277 35.3296ZM23.9798 35.4176L21.0348 36.4725V37.6205L22.7208 37.0995V42.5405H24.1328V35.4176H23.9798ZM11.689 35.4276L11.279 39.0425L12.4039 39.3215L12.5409 39.1945C12.7489 39.0185 13.0199 38.9295 13.3549 38.9295C13.7199 38.9295 14.0029 39.0385 14.2009 39.2535C14.3999 39.4685 14.4999 39.7775 14.4999 40.1815C14.4999 40.6015 14.4129 40.9265 14.2399 41.1575C14.0679 41.3855 13.8209 41.4995 13.5019 41.4995C13.2149 41.4995 12.9839 41.4185 12.8049 41.2555C12.6289 41.0895 12.5249 40.8575 12.4959 40.5605H11.1C11.113 40.9645 11.224 41.3265 11.436 41.6425C11.65 41.9575 11.943 42.2025 12.3109 42.3785C12.6789 42.5515 13.0779 42.6385 13.5079 42.6385C13.9999 42.6385 14.4259 42.5385 14.7869 42.3395C15.1489 42.1375 15.4249 41.8575 15.6169 41.4955C15.8129 41.1305 15.9099 40.7185 15.9099 40.2595C15.9099 39.5035 15.7179 38.9155 15.3339 38.4955C14.9499 38.0755 14.4199 37.8645 13.7419 37.8645C13.3639 37.8645 13.0069 37.9555 12.6719 38.1345L12.8479 36.6045H15.6759V35.4276H11.689ZM31.7187 35.4276L34.0547 39.9605V42.5405H35.5447V39.9605L37.8786 35.4276H36.2766L34.7967 38.6325L33.3257 35.4276H31.7187ZM7.703 36.4725C8.045 36.4725 8.2973 36.6085 8.45689 36.8785C8.61979 37.1455 8.70109 37.5745 8.70109 38.1635V39.8535C8.69459 40.4095 8.61389 40.8225 8.46079 41.0935C8.3078 41.3635 8.058 41.4995 7.7128 41.4995C7.36431 41.4995 7.11071 41.3595 6.95111 41.0795C6.79472 40.7965 6.71672 40.3645 6.71672 39.7845V38.0565C6.72652 37.5125 6.81042 37.1125 6.96671 36.8585C7.12631 36.6015 7.37081 36.4725 7.703 36.4725ZM28.8277 36.4725C29.1697 36.4725 29.4197 36.6085 29.5797 36.8785C29.7427 37.1455 29.8237 37.5745 29.8237 38.1635V39.8535C29.8177 40.4095 29.7367 40.8225 29.5837 41.0935C29.4307 41.3635 29.1827 41.4995 28.8377 41.4995C28.4887 41.4995 28.2337 41.3595 28.0737 41.0795C27.9178 40.7965 27.8398 40.3645 27.8398 39.7845V38.0565C27.8498 37.5125 27.9337 37.1125 28.0897 36.8585C28.2487 36.6015 28.4957 36.4725 28.8277 36.4725ZM40.1796 37.1575C39.5506 37.1575 39.0406 37.3145 38.6496 37.6305C38.2626 37.9435 38.0696 38.3335 38.0696 38.8025C38.0696 39.6065 38.6976 40.1415 39.9546 40.4055C40.3326 40.4835 40.6056 40.5725 40.7746 40.6735C40.9476 40.7715 41.0346 40.9065 41.0346 41.0795C41.0346 41.2455 40.9636 41.3815 40.8236 41.4855C40.6866 41.5865 40.4846 41.6365 40.2146 41.6365C39.9246 41.6365 39.6936 41.5695 39.5206 41.4375C39.3486 41.3035 39.2546 41.1095 39.2416 40.8585H37.9036C37.9036 41.1785 38.0016 41.4765 38.1966 41.7535C38.3926 42.0265 38.6616 42.2445 39.0036 42.4035C39.3486 42.5605 39.7426 42.6385 40.1856 42.6385C40.8396 42.6385 41.3726 42.4895 41.7866 42.1925C42.2006 41.8935 42.4076 41.5015 42.4076 41.0195C42.4076 40.3455 42.0346 39.8725 41.2886 39.5995C41.0476 39.5115 40.7516 39.4335 40.3996 39.3645C40.0486 39.2935 39.7976 39.2115 39.6476 39.1165C39.5016 39.0185 39.4276 38.8905 39.4276 38.7335C39.4276 38.5675 39.4926 38.4315 39.6226 38.3235C39.7526 38.2165 39.9376 38.1635 40.1756 38.1635C40.4526 38.1635 40.6546 38.2295 40.7846 38.3625C40.9146 38.4935 40.9816 38.6585 40.9816 38.8605H42.3926C42.3926 38.3565 42.1906 37.9465 41.7866 37.6305C41.3866 37.3145 40.8506 37.1575 40.1796 37.1575ZM16.8689 38.9255V40.0635H19.6189V38.9255H16.8689Z" fill="#333333"/>
</svg>

<?xml version="1.0" encoding="UTF-8" standalone="no"?>
<!-- Created with Inkscape (http://www.inkscape.org/) -->
<svg id="svg8" xmlns:rdf="http://www.w3.org/1999/02/22-rdf-syntax-ns#" xmlns="http://www.w3.org/2000/svg" height="48" viewBox="0 0 12.7 12.7" width="48" version="1.1" xmlns:cc="http://creativecommons.org/ns#" xmlns:dc="http://purl.org/dc/elements/1.1/">
 <title id="title4753">UIO-icon</title>
 <metadata id="metadata5">
  <rdf:RDF>
   <cc:Work rdf:about="">
    <dc:format>image/svg+xml</dc:format>
    <dc:type rdf:resource="http://purl.org/dc/dcmitype/StillImage"/>
    <dc:title>UIO-icon</dc:title>
    <dc:creator>
     <cc:Agent>
      <dc:title>Joaquín Urbano</dc:title>
     </cc:Agent>
    </dc:creator>
    <dc:rights>
     <cc:Agent>
      <dc:title>GPL</dc:title>
     </cc:Agent>
    </dc:rights>
   </cc:Work>
  </rdf:RDF>
 </metadata>
 <path id="rect823" d="m0 0v48h48v-48h-48zm12.637 4c0.604 0.0125 1.265 0.1064 1.978 0.2734 2.553 0.6657 4.112 3.7301 5.219 6.7776 0.147-0.083 0.292-0.166 0.443-0.242-0.002-0.001-0.004-0.002-0.006-0.002 1.58-0.893 3.099-1.0492 5.012-1.2015 0.005 0 0.015-0.0039 0.02-0.0039 0.038 0 0.075 0.0073 0.113 0.0078 0.278 0.0041 0.555 0.0168 0.832 0.0429 5.794 0.4907 10.248 5.3357 10.252 11.151 0 6.184-5.013 11.197-11.197 11.197s-11.198-5.013-11.198-11.197c0.005-3.714 1.848-7.146 4.856-9.213-0.918-2.8446-5.075-7.0498-7.094-3.2755-2.6574 3.8555-0.035 15.56-3.9432 15.288-3.5555-0.004-4.9464-3.907-3.1543-6.454-1.9871 3.224 4.76 8.795 3.7832 1.522-1.6649-10.847-0.1459-14.756 4.0843-14.668v-0.002zm14.07 10.5c-0.398-0.035-0.824 0.71-1.316 2.803-3.194 0.402-4.59 2.067-9.495-0.285-0.486 1.202-0.737 2.487-0.74 3.785 0 5.604 4.542 10.148 10.147 10.148 5.605 0.001 10.149-4.543 10.148-10.148-0.004-0.696-0.079-1.39-0.224-2.071-2.236 0.108-4.929 0.456-7.038-1.429-0.505-1.422-0.97-2.758-1.482-2.803zm-5.166 5.035c0.58 0 1.05 0.469 1.051 1.049 0 0.581-0.47 1.051-1.051 1.051-0.58-0.001-1.049-0.471-1.049-1.051 0.001-0.579 0.47-1.048 1.049-1.049zm7.654 0c0.58 0 1.051 0.469 1.051 1.049 0.001 0.581-0.47 1.051-1.051 1.051-0.579-0.001-1.049-0.471-1.049-1.051 0.001-0.579 0.47-1.048 1.049-1.049zm-7.226 5.647c0.173-0.016 0.363 0.122 0.41 0.461 0.14 1.101 1.433 1.946 2.982 1.947 1.601-0.033 2.883-0.79 3.701-1.947-0.141 1.385-1.756 2.456-3.701 2.457-1.943-0.002-3.557-1.073-3.699-2.457-0.023-0.276 0.134-0.446 0.307-0.461zm-17.969 8.818h40v10h-40v-10zm3.7031 1.33c-0.7751 0-1.3696 0.257-1.7832 0.772-0.4103 0.514-0.6152 1.268-0.6152 2.261v1.311c0.0098 0.954 0.2206 1.686 0.6308 2.197 0.4104 0.511 1.0023 0.768 1.7774 0.768 0.7849 0 1.382-0.26 1.7891-0.782 0.4069-0.521 0.609-1.274 0.609-2.257v-1.309c-0.009-0.954-0.2182-1.685-0.6286-2.193-0.4103-0.512-1.0042-0.768-1.7793-0.768zm21.125 0c-0.775 0-1.369 0.257-1.783 0.772-0.41 0.514-0.617 1.268-0.617 2.261v1.311c0.01 0.954 0.22 1.686 0.631 2.197 0.41 0.511 1.004 0.768 1.779 0.768 0.785 0 1.38-0.26 1.787-0.782 0.407-0.521 0.611-1.274 0.611-2.257v-1.309c-0.009-0.954-0.22-1.685-0.631-2.193-0.41-0.512-1.002-0.768-1.777-0.768zm-4.848 0.088l-2.945 1.055v1.148l1.686-0.521v5.441h1.412v-7.123h-0.153zm-12.291 0.01l-0.41 3.615 1.125 0.279 0.137-0.127c0.208-0.176 0.479-0.265 0.814-0.265 0.365 0 0.648 0.109 0.846 0.324 0.199 0.215 0.299 0.524 0.299 0.928 0 0.42-0.087 0.745-0.26 0.976-0.172 0.228-0.419 0.342-0.738 0.342-0.287 0-0.518-0.081-0.697-0.244-0.176-0.166-0.28-0.398-0.309-0.695h-1.396c0.013 0.404 0.124 0.766 0.336 1.082 0.214 0.315 0.507 0.56 0.875 0.736 0.368 0.173 0.767 0.26 1.197 0.26 0.492 0 0.918-0.1 1.279-0.299 0.362-0.202 0.638-0.482 0.83-0.844 0.196-0.365 0.293-0.777 0.293-1.236 0-0.756-0.192-1.344-0.576-1.764s-0.914-0.631-1.592-0.631c-0.378 0-0.735 0.091-1.07 0.27l0.176-1.53h2.828v-1.177h-3.987zm20.03 0l2.336 4.533v2.58h1.49v-2.58l2.334-4.533h-1.602l-1.48 3.205-1.471-3.205h-1.607zm-24.016 1.045c0.342 0 0.5943 0.136 0.7539 0.406 0.1629 0.267 0.2442 0.696 0.2442 1.285v1.69c-0.0065 0.556-0.0872 0.969-0.2403 1.24-0.153 0.27-0.4028 0.406-0.748 0.406-0.3485 0-0.6021-0.14-0.7617-0.42-0.1564-0.283-0.2344-0.715-0.2344-1.295v-1.728c0.0098-0.544 0.0937-0.944 0.25-1.198 0.1596-0.257 0.4041-0.386 0.7363-0.386zm21.125 0c0.342 0 0.592 0.136 0.752 0.406 0.163 0.267 0.244 0.696 0.244 1.285v1.69c-0.006 0.556-0.087 0.969-0.24 1.24-0.153 0.27-0.401 0.406-0.746 0.406-0.349 0-0.604-0.14-0.764-0.42-0.156-0.283-0.234-0.715-0.234-1.295v-1.728c0.01-0.544 0.094-0.944 0.25-1.198 0.159-0.257 0.406-0.386 0.738-0.386zm11.352 0.685c-0.629 0-1.139 0.157-1.53 0.473-0.387 0.313-0.58 0.703-0.58 1.172 0 0.804 0.628 1.339 1.885 1.603 0.378 0.078 0.651 0.167 0.82 0.268 0.173 0.098 0.26 0.233 0.26 0.406 0 0.166-0.071 0.302-0.211 0.406-0.137 0.101-0.339 0.151-0.609 0.151-0.29 0-0.521-0.067-0.694-0.199-0.172-0.134-0.266-0.328-0.279-0.579h-1.338c0 0.32 0.098 0.618 0.293 0.895 0.196 0.273 0.465 0.491 0.807 0.65 0.345 0.157 0.739 0.235 1.182 0.235 0.654 0 1.187-0.149 1.601-0.446 0.414-0.299 0.621-0.691 0.621-1.173 0-0.674-0.373-1.147-1.119-1.42-0.241-0.088-0.537-0.166-0.889-0.235-0.351-0.071-0.602-0.153-0.752-0.248-0.146-0.098-0.22-0.226-0.22-0.383 0-0.166 0.065-0.302 0.195-0.41 0.13-0.107 0.315-0.16 0.553-0.16 0.277 0 0.479 0.066 0.609 0.199 0.13 0.131 0.197 0.296 0.197 0.498h1.411c0-0.504-0.202-0.914-0.606-1.23-0.4-0.316-0.936-0.473-1.607-0.473zm-23.311 1.768v1.138h2.75v-1.138h-2.75z" fill-rule="evenodd" transform="scale(.26458)" fill="#333"/>
</svg>
